X: 1
T: Gillan's Apples
M: 6/8
L: 1/8
R: jig
K: Gmaj
g3 B2A | GAG GBd | efe edB | dBA A2 D |
GBA G2D  | GBd g2 a | bag fge | ed^c d2:|
faa faa | faa agf | gbb gbb | gbb bag |
faa faa | faa aga | bag fge | ed^c d2:|
